X: 30249
T: Old John's
R: jig
M: 6/8
K: Adorian
|:"Am"cAA cAA|"Em"GEE GAB|"Am"cAA A2G|"D"Add ded|
"Am"cAA cAA|"Em"GEE "G"GAB|"C"cde "G"ged|"Am"cAA "D"A3:|
|:"Em"efg "Am"eaa|"G"ged "Am"cAA|"Em"efg "Am"a2a|"G"bag "Am"a2g|
"Em"efg "Am"eaa|"G"ged "Am"cAA|"C"cde "G"ged|"Am"cAA A3:|

